**harm	**harte	**timestamp	**phrase	**leadinstrument	**kern
*M4/4	*M4/4	*	*	*	*
*D:	*D:	*	*	*	*D:
1r;	N	0	.	r	1r;
=1	=1	=1	=1	=1	=1
*>A_intro	*>A_intro	*>A_intro	*>A_intro	*>A_intro	*>A_intro
2IV	G:maj	0.209	newline	synthesizer	2G 2b 2dd
2ii	E:min	1.362	.	synthesizer	2E 2g 2b
=2	=2	=2	=2	=2	=2
2ii	E:min	2.516	.	synthesizer	2E 2g 2b
2vid	B:min/b7	3.669	.	synthesizer	2b 2dd 2ff#
=3	=3	=3	=3	=3	=3
2IV	G:maj	4.823	.	synthesizer	2G 2b 2dd
2V	A:maj	5.976	.	synthesizer	2A 2cc# 2ee
=4	=4	=4	=4	=4	=4
1V	A:maj	7.13	.	synthesizer	1A 1cc# 1ee
=5	=5	=5	=5	=5	=5
*>B_verse	*>B_verse	*>B_verse	*>B_verse	*>B_verse	*>B_verse
2I	D:maj	9.437	newline	voice	2D 2f# 2a
2ii	E:min	10.568	.	voice	2E 2g 2b
=6	=6	=6	=6	=6	=6
2ii	E:min	11.7	.	voice	2E 2g 2b
2vi7	B:min7	12.832	.	voice	2B 2dd 2ff# 2aa
=7	=7	=7	=7	=7	=7
2vi7	B:min7	13.963	.	voice	2B 2dd 2ff# 2aa
2iii7	F#:min7	15.095	.	voice	2F# 2a 2cc# 2ee
=8	=8	=8	=8	=8	=8
1iii7	F#:min7	16.227	.	voice	1F# 1a 1cc# 1ee
=9	=9	=9	=9	=9	=9
2I	D:maj	18.49	newline	voice	2D 2f# 2a
2ii	E:min	19.628	.	voice	2E 2g 2b
=10	=10	=10	=10	=10	=10
2ii	E:min	20.766	.	voice	2E 2g 2b
2vi7	B:min7	21.904	.	voice	2B 2dd 2ff# 2aa
=11	=11	=11	=11	=11	=11
2vi7	B:min7	23.042	.	voice	2B 2dd 2ff# 2aa
2iii7	F#:min7	24.18	.	voice	2F# 2a 2cc# 2ee
=12	=12	=12	=12	=12	=12
1iii7	F#:min7	25.318	.	voice	1F# 1a 1cc# 1ee
=13	=13	=13	=13	=13	=13
*>C_prechorus	*>C_prechorus	*>C_prechorus	*>C_prechorus	*>C_prechorus	*>C_prechorus
1vi	B:min	27.594	newline	voice	1B 1dd 1ff#
=14	=14	=14	=14	=14	=14
1vi	B:min	29.864	.	voice	1B 1dd 1ff#
=15	=15	=15	=15	=15	=15
2V	A:sus4	32.135	.	voice	2A 2cc# 2ee
2V	A:maj	33.27	.	voice	2A 2cc# 2ee
=16	=16	=16	=16	=16	=16
2V	A:sus4	34.406	.	voice	2A 2cc# 2ee
2V	A:maj	35.541	.	voice	2A 2cc# 2ee
=17	=17	=17	=17	=17	=17
1IV	G:maj	36.676	newline	voice	1G 1b 1dd
=18	=18	=18	=18	=18	=18
1IV	G:maj	38.952	.	voice	1G 1b 1dd
=19	=19	=19	=19	=19	=19
1vi	B:min(9)	41.227	.	voice	1B 1dd 1ff#
=20	=20	=20	=20	=20	=20
2.vi	B:min	43.503	.	voice	2B 2dd 2ff#
4IV	G:maj	45.21	.	voice	4G 4b 4dd
=21	=21	=21	=21	=21	=21
*>D_chorus	*>D_chorus	*>D_chorus	*>D_chorus	*>D_chorus	*>D_chorus
1V	A:maj	45.779	newline	voice	1A 1cc# 1ee
=22	=22	=22	=22	=22	=22
1V	A:maj	47.989	.	voice	1A 1cc# 1ee
=23	=23	=23	=23	=23	=23
2.I	D:maj	50.2	.	voice	2D 2f# 2a
4IV	G:maj	51.857	.	voice	4G 4b 4dd
=24	=24	=24	=24	=24	=24
1V	A:maj	52.41	->newline	voice	1A 1cc# 1ee
=25	=25	=25	=25	=25	=25
1V	A:maj	54.646	.	voice	1A 1cc# 1ee
=26	=26	=26	=26	=26	=26
2I	D:maj	56.883	.	voice	2D 2f# 2a
2IV	G:maj	58.001	.	voice	2G 2b 2dd
=27	=27	=27	=27	=27	=27
1V	A:maj	59.119	.	voice	1A 1cc# 1ee
=28	=28	=28	=28	=28	=28
2I	D:maj	61.356	newline	voice	2D 2f# 2a
2iii	F#:min	62.481	.	voice	2F# 2a 2cc#
=29	=29	=29	=29	=29	=29
2IV	G:maj	63.606	.	voice	2G 2b 2dd
2V	A:maj	64.731	.	voice	2A 2cc# 2ee
=30	=30	=30	=30	=30	=30
2I	D:maj	65.855	.	voice	2D 2f# 2a
2IV	G:maj	66.98	.	voice	2G 2b 2dd
=31	=31	=31	=31	=31	=31
1V	A:maj	68.105	.	voice	1A 1cc# 1ee
=32	=32	=32	=32	=32	=32
2I	D:maj	70.355	newline	voice	2D 2f# 2a
2IV	G:maj	71.471	.	voice	2G 2b 2dd
=33	=33	=33	=33	=33	=33
*M2/4	*M2/4	*M2/4	*M2/4	*M2/4	*M2/4
2V	A:maj	72.586	.	voice	2A 2cc# 2ee
=34	=34	=34	=34	=34	=34
*>E_trans	*>E_trans	*>E_trans	*>E_trans	*>E_trans	*>E_trans
*M4/4	*M4/4	*M4/4	*M4/4	*M4/4	*M4/4
1I	D:maj	73.702	->newline	guitar	1D 1f# 1a
=35	=35	=35	=35	=35	=35
1iii	F#:min	75.931	.	guitar	1F# 1a 1cc#
=36	=36	=36	=36	=36	=36
1IV	G:maj	78.16	.	guitar	1G 1b 1dd
=37	=37	=37	=37	=37	=37
1V	A:maj	80.389	.	guitar	1A 1cc# 1ee
=38	=38	=38	=38	=38	=38
1I	D:maj	82.619	newline	guitar	1D 1f# 1a
=39	=39	=39	=39	=39	=39
1iii	F#:min	84.828	.	guitar	1F# 1a 1cc#
=40	=40	=40	=40	=40	=40
1IV	G:maj	87.038	.	guitar	1G 1b 1dd
=41	=41	=41	=41	=41	=41
1V	A:maj	89.247	.	guitar	1A 1cc# 1ee
=42	=42	=42	=42	=42	=42
*>B_verse	*>B_verse	*>B_verse	*>B_verse	*>B_verse	*>B_verse
2I	D:maj	91.457	newline	voice	2D 2f# 2a
2ii	E:min	92.585	.	voice	2E 2g 2b
=43	=43	=43	=43	=43	=43
2ii	E:min	93.713	.	voice	2E 2g 2b
2vi7	B:min7	94.842	.	voice	2B 2dd 2ff# 2aa
=44	=44	=44	=44	=44	=44
2vi7	B:min7	95.97	.	voice	2B 2dd 2ff# 2aa
2iii7	F#:min7	97.098	.	voice	2F# 2a 2cc# 2ee
=45	=45	=45	=45	=45	=45
1iii7	F#:min7	98.226	.	voice	1F# 1a 1cc# 1ee
=46	=46	=46	=46	=46	=46
2I	D:maj	100.482	newline	voice	2D 2f# 2a
2ii	E:min	101.606	.	voice	2E 2g 2b
=47	=47	=47	=47	=47	=47
2ii	E:min	102.73	.	voice	2E 2g 2b
2vi7	B:min7	103.853	.	voice	2B 2dd 2ff# 2aa
=48	=48	=48	=48	=48	=48
2vi7	B:min7	104.977	.	voice	2B 2dd 2ff# 2aa
2iii7	F#:min7	106.101	.	voice	2F# 2a 2cc# 2ee
=49	=49	=49	=49	=49	=49
1iii7	F#:min7	107.224	.	voice	1F# 1a 1cc# 1ee
=50	=50	=50	=50	=50	=50
*>C_prechorus	*>C_prechorus	*>C_prechorus	*>C_prechorus	*>C_prechorus	*>C_prechorus
1vi	B:min	109.472	newline	voice	1B 1dd 1ff#
=51	=51	=51	=51	=51	=51
1vi	B:min	111.697	.	voice	1B 1dd 1ff#
=52	=52	=52	=52	=52	=52
2V	A:sus4	113.923	.	voice	2A 2cc# 2ee
2V	A:maj	115.036	.	voice	2A 2cc# 2ee
=53	=53	=53	=53	=53	=53
2V	A:sus4	116.148	.	voice	2A 2cc# 2ee
2V	A:maj	117.261	.	voice	2A 2cc# 2ee
=54	=54	=54	=54	=54	=54
1IV	G:maj	118.374	newline	voice	1G 1b 1dd
=55	=55	=55	=55	=55	=55
1IV	G:maj	120.623	.	voice	1G 1b 1dd
=56	=56	=56	=56	=56	=56
1vi	B:min(9)	122.873	.	voice	1B 1dd 1ff#
=57	=57	=57	=57	=57	=57
2.vi	B:min	125.123	.	voice	2B 2dd 2ff#
4IV	G:maj	126.81	.	voice	4G 4b 4dd
=58	=58	=58	=58	=58	=58
*>D_chorus	*>D_chorus	*>D_chorus	*>D_chorus	*>D_chorus	*>D_chorus
1V	A:maj	127.372	newline	voice	1A 1cc# 1ee
=59	=59	=59	=59	=59	=59
1V	A:maj	129.582	.	voice	1A 1cc# 1ee
=60	=60	=60	=60	=60	=60
2.I	D:maj	131.793	.	voice	2D 2f# 2a
4IV	G:maj	133.451	.	voice	4G 4b 4dd
=61	=61	=61	=61	=61	=61
1V	A:maj	134.003	->newline	voice	1A 1cc# 1ee
=62	=62	=62	=62	=62	=62
1V	A:maj	136.216	.	voice	1A 1cc# 1ee
=63	=63	=63	=63	=63	=63
2I	D:maj	138.428	.	voice	2D 2f# 2a
2IV	G:maj	139.535	.	voice	2G 2b 2dd
=64	=64	=64	=64	=64	=64
1V	A:maj	140.641	.	voice	1A 1cc# 1ee
=65	=65	=65	=65	=65	=65
2I	D:maj	142.854	newline	voice	2D 2f# 2a
2iii	F#:min	143.957	.	voice	2F# 2a 2cc#
=66	=66	=66	=66	=66	=66
2IV	G:maj	145.06	.	voice	2G 2b 2dd
2V	A:maj	146.164	.	voice	2A 2cc# 2ee
=67	=67	=67	=67	=67	=67
2I	D:maj	147.267	.	voice	2D 2f# 2a
2IV	G:maj	148.37	.	voice	2G 2b 2dd
=68	=68	=68	=68	=68	=68
1V	A:maj	149.474	.	voice	1A 1cc# 1ee
=69	=69	=69	=69	=69	=69
2I	D:maj	151.681	newline	voice	2D 2f# 2a
2IV	G:maj	152.78	.	voice	2G 2b 2dd
=70	=70	=70	=70	=70	=70
*M2/4	*M2/4	*M2/4	*M2/4	*M2/4	*M2/4
2V	A:maj	153.88	.	voice	2A 2cc# 2ee
=71	=71	=71	=71	=71	=71
*>E_trans	*>E_trans	*>E_trans	*>E_trans	*>E_trans	*>E_trans
*M4/4	*M4/4	*M4/4	*M4/4	*M4/4	*M4/4
1I	D:maj	154.98	->newline	guitar	1D 1f# 1a
=72	=72	=72	=72	=72	=72
1iii	F#:min	157.181	.	guitar	1F# 1a 1cc#
=73	=73	=73	=73	=73	=73
1IV	G:maj	159.382	.	guitar	1G 1b 1dd
=74	=74	=74	=74	=74	=74
1V	A:maj	161.583	.	guitar	1A 1cc# 1ee
=75	=75	=75	=75	=75	=75
1I	D:maj	163.784	newline	guitar	1D 1f# 1a
=76	=76	=76	=76	=76	=76
1iii	F#:min	165.973	.	guitar	1F# 1a 1cc#
=77	=77	=77	=77	=77	=77
1IV	G:maj	168.162	.	guitar	1G 1b 1dd
=78	=78	=78	=78	=78	=78
1V	A:maj	170.351	.	guitar	1A 1cc# 1ee
=79	=79	=79	=79	=79	=79
*>F_bridge	*>F_bridge	*>F_bridge	*>F_bridge	*>F_bridge	*>F_bridge
2V	A:maj	172.54	newline	piano	2A 2cc# 2ee
2vi	B:min	173.667	.	piano	2B 2dd 2ff#
=80	=80	=80	=80	=80	=80
1vi	B:min	174.795	.	piano	1B 1dd 1ff#
=81	=81	=81	=81	=81	=81
2V	A:maj	177.05	.	piano	2A 2cc# 2ee
2vi	B:min	178.178	.	piano	2B 2dd 2ff#
=82	=82	=82	=82	=82	=82
2.vi	B:min	179.306	.	piano	2B 2dd 2ff#
4IV	G:maj	180.997	.	piano	4G 4b 4dd
=83	=83	=83	=83	=83	=83
*>D_chorus	*>D_chorus	*>D_chorus	*>D_chorus	*>D_chorus	*>D_chorus
1V	A:maj	181.561	newline	voice	1A 1cc# 1ee
=84	=84	=84	=84	=84	=84
1V	A:maj	183.763	.	voice	1A 1cc# 1ee
=85	=85	=85	=85	=85	=85
2.I	D:maj	185.965	.	voice	2D 2f# 2a
4IV	G:maj	187.616	.	voice	4G 4b 4dd
=86	=86	=86	=86	=86	=86
1V	A:maj	188.166	->newline	voice	1A 1cc# 1ee
=87	=87	=87	=87	=87	=87
1V	A:maj	190.365	.	voice	1A 1cc# 1ee
=88	=88	=88	=88	=88	=88
2I	D:maj	192.564	.	voice	2D 2f# 2a
2IV	G:maj	193.663	.	voice	2G 2b 2dd
=89	=89	=89	=89	=89	=89
1V	A:maj	194.762	.	voice	1A 1cc# 1ee
=90	=90	=90	=90	=90	=90
2I	D:maj	196.961	newline	voice	2D 2f# 2a
2iii	F#:min	198.053	.	voice	2F# 2a 2cc#
=91	=91	=91	=91	=91	=91
2IV	G:maj	199.146	.	voice	2G 2b 2dd
2V	A:maj	200.239	.	voice	2A 2cc# 2ee
=92	=92	=92	=92	=92	=92
2I	D:maj	201.331	.	voice	2D 2f# 2a
2IV	G:maj	202.424	.	voice	2G 2b 2dd
=93	=93	=93	=93	=93	=93
1V	A:maj	203.517	.	voice	1A 1cc# 1ee
=94	=94	=94	=94	=94	=94
2I	D:maj	205.702	newline	voice	2D 2f# 2a
2IV	G:maj	206.809	.	voice	2G 2b 2dd
=95	=95	=95	=95	=95	=95
*M2/4	*M2/4	*M2/4	*M2/4	*M2/4	*M2/4
2V	A:maj	207.916	.	voice	2A 2cc# 2ee
=96	=96	=96	=96	=96	=96
*>E_outro	*>E_outro	*>E_outro	*>E_outro	*>E_outro	*>E_outro
*M4/4	*M4/4	*M4/4	*M4/4	*M4/4	*M4/4
1I	D:maj	209.023	->newline	guitar	1D 1f# 1a
=97	=97	=97	=97	=97	=97
1iii	F#:min	211.236	.	guitar	1F# 1a 1cc#
=98	=98	=98	=98	=98	=98
1IV	G:maj	213.45	.	guitar	1G 1b 1dd
=99	=99	=99	=99	=99	=99
1V	A:maj	215.663	.	guitar	1A 1cc# 1ee
=100	=100	=100	=100	=100	=100
1I	D:maj	217.877	newline	guitar	1D 1f# 1a
=101	=101	=101	=101	=101	=101
1iii	F#:min	220.051	.	guitar	1F# 1a 1cc#
=102	=102	=102	=102	=102	=102
1IV	G:maj	222.224	.	guitar	1G 1b 1dd
=103	=103	=103	=103	=103	=103
1V	A:maj	224.398	.	guitar	1A 1cc# 1ee
=104	=104	=104	=104	=104	=104
*>_fadeout	*>_fadeout	*>_fadeout	*>_fadeout	*>_fadeout	*>_fadeout
1I	D:maj	226.572	newline	guitar	1D 1f# 1a
=105	=105	=105	=105	=105	=105
1iii	F#:min	228.753	.	guitar	1F# 1a 1cc#
=106	=106	=106	=106	=106	=106
1IV	G:maj	230.934	.	guitar	1G 1b 1dd
=107	=107	=107	=107	=107	=107
1V	A:maj	233.115	.	guitar	1A 1cc# 1ee
=108	=108	=108	=108	=108	=108
1I	D:maj	235.296	newline	guitar	1D 1f# 1a
=109	=109	=109	=109	=109	=109
1iii	F#:min	236.756	.	guitar	1F# 1a 1cc#
=110	=110	=110	=110	=110	=110
1IV	G:maj	238.216	.	guitar	1G 1b 1dd
1r;	N	239.676	.	r	1r;
1r;	N	243.67	.	r	1r;
*-	*-	*-	*-	*-	*-
!!!OTL: Knowing Me, Knowing You
!!!COC: Abba
!!!BillboardChartDate: 1977/07/02
!!!BillboardPeak: 14
!!!BillboardWeeksOnChart: 15
!!!SampleTargetRank: 23
!!!SampleActualRank: 24
!!!SampleID#: 0231
!!!RDF**harmony: **recip + pitch class of root + harmonic quality
!!!RDF**harte: Chris Harte's syntax, used by MIREX
!!!RDF**phrase: newline = linebreak in original McGill transcription
!!!RDF**timestamp: McGill audio timestamp in seconds
!!!RDF**leadinstrument: original McGill primary instrumentation annotation
!!!RDT: 2017/01/12/
!!!ENC: Nathaniel Condit-Schultz
!!!EST: Awating manual error checking and editing.
